resources/haticons/SVG/rate_review.svg

<!-- Generated by IcoMoon.io -->
<svg version="1.1" xmlns="http://www.w3.org/2000/svg" width="24" height="24" viewBox="0 0 24 24">
<title>rate_review</title>
<path d="M18 14.016v-2.016h-5.484l-2.016 2.016h7.5zM6 14.016h2.484l6.891-6.891q0.375-0.375 0-0.703l-1.781-1.781q-0.375-0.328-0.703 0l-6.891 6.891v2.484zM20.016 2.016q0.797 0 1.383 0.586t0.586 1.383v12q0 0.797-0.586 1.406t-1.383 0.609h-14.016l-3.984 3.984v-18q0-0.797 0.586-1.383t1.383-0.586h16.031z"></path>
</svg>

<svg xmlns="http://www.w3.org/2000/svg" width="24" height="24"><path d="M18 14.016V12h-5.484L10.5 14.016H18zm-12 0h2.484l6.891-6.891q.375-.375 0-.703l-1.781-1.781q-.375-.328-.703 0L6 11.532v2.484zm14.016-12q.797 0 1.383.586t.586 1.383v12q0 .797-.586 1.406T20.016 18H6l-3.984 3.984v-18q0-.797.586-1.383t1.383-.586h16.031z"/></svg>
